X:102
T:Knights of St. Patrick 1 (j)
B:NFID.059
102kn_sp1
S:?
L:1/8
M:6/8
R:jig % A-B-A, final m.16 |A,CE D3|
Q:320
K:D
(3ABc|def gfe|dcd AFD|GBG FAF|A,CE GFE|
"5"dcd faf|dcd AFD|GBc dAF|A,CE D2c|
"9"def gfe|dcd AFD|GBG FAF|E2F GFE|
"13"dcd faf|dcd AFD|GBc dAF|A,CE D2||
^g|"17"a^ga fdf|Adf agf|gfg e^de|Ace gfe|
"21"fef gfg|a^ga ba=g|fed cBA|1 dAF D2:|\
2 dAF DFA||

%%%

